site/images/logo_jbl.svg

<svg width="500" height="500" viewBox="0 0 500 500" fill="none" xmlns="http://www.w3.org/2000/svg">
<rect width="500" height="500" fill="white"/>
<path fill-rule="evenodd" clip-rule="evenodd" d="M85 85H415V415H85V85Z" fill="white"/>
<path fill-rule="evenodd" clip-rule="evenodd" d="M107.191 260.445C108.676 261.515 110.32 262.345 112.063 262.902C115.513 263.991 119.215 263.99 122.664 262.9C124.417 262.345 126.071 261.517 127.566 260.445C129.072 259.361 130.397 258.043 131.49 256.542C133.629 253.585 134.779 250.027 134.773 246.378C134.773 244.585 134.503 242.784 133.951 241.052C132.826 237.505 130.589 234.414 127.572 232.235C126.08 231.16 124.426 230.329 122.673 229.773C119.218 228.678 115.509 228.678 112.053 229.771C108.519 230.903 105.442 233.143 103.279 236.159C102.207 237.653 101.379 239.307 100.824 241.06C100.276 242.793 100.006 244.59 100.006 246.378C100.006 248.165 100.275 249.944 100.822 251.661C101.949 255.196 104.181 258.276 107.191 260.445ZM144.86 161.221H89.8518L117.413 223.665L144.86 161.221Z" fill="black"/>
<path fill-rule="evenodd" clip-rule="evenodd" d="M162.316 311.727C162.314 313.422 161.98 315.1 161.333 316.667C160.021 319.826 157.51 322.337 154.35 323.65C152.784 324.296 151.106 324.63 149.411 324.631H146.795C145.107 324.631 143.417 324.295 141.856 323.65C138.695 322.338 136.184 319.827 134.872 316.667C134.226 315.1 133.893 313.422 133.892 311.727L133.869 282.459L104.099 282.418V304.515C104.099 309.009 104.996 313.505 106.712 317.656C108.44 321.822 110.969 325.608 114.157 328.798C117.347 331.985 121.132 334.514 125.297 336.242C129.465 337.963 133.929 338.852 138.439 338.856H156.844C161.338 338.856 165.832 337.959 169.986 336.242C174.151 334.514 177.936 331.985 181.126 328.798C184.314 325.608 186.844 321.822 188.571 317.656C190.293 313.488 191.18 309.024 191.184 304.515V161.351L162.302 161.393L162.316 311.727ZM382.345 282.459L382.321 308.446C382.321 310.134 381.984 311.825 381.342 313.385C380.692 314.95 379.741 316.372 378.543 317.571C377.345 318.769 375.923 319.72 374.357 320.368C372.79 321.015 371.112 321.349 369.418 321.351H366.803C365.109 321.349 363.431 321.015 361.864 320.368C360.298 319.72 358.876 318.769 357.678 317.571C356.485 316.377 355.525 314.944 354.879 313.385C354.234 311.825 353.897 310.135 353.897 308.446L353.91 161.393L325.03 161.351L325.041 335.172H410.126L410.15 282.418L382.345 282.459ZM300.963 256.418C299.537 253.041 297.464 249.976 294.861 247.395C292.43 244.984 289.512 243.121 286.301 241.931C288.972 240.649 291.424 238.954 293.567 236.908C295.75 234.834 297.676 232.378 298.974 229.608C300.277 226.813 300.952 223.768 300.953 220.685L300.97 189.048C300.97 185.391 300.241 181.733 298.847 178.359C297.453 174.984 295.387 171.896 292.805 169.316C290.227 166.736 287.14 164.668 283.768 163.271C280.395 161.874 276.74 161.143 273.081 161.143H215.647V335.18H275.268C280.783 335.18 286.175 333.544 290.761 330.48C295.347 327.415 298.922 323.06 301.033 317.964C302.432 314.574 303.153 310.943 303.156 307.276C303.156 293.938 303.122 280.601 303.156 267.265C303.156 263.539 302.41 259.851 300.963 256.418ZM243.671 176.136L258.786 176.085C260.481 176.084 262.159 176.417 263.725 177.066C265.291 177.714 266.714 178.666 267.911 179.865C269.108 181.06 270.065 182.491 270.71 184.051C271.356 185.611 271.686 187.3 271.693 188.99L271.773 223.883C271.774 226.003 271.146 228.075 269.968 229.838C268.79 231.601 267.115 232.974 265.156 233.785C263.855 234.319 262.463 234.597 261.056 234.601L243.671 234.668V176.136ZM272.051 312.631C271.512 313.932 270.723 315.113 269.728 316.108C268.733 317.103 267.551 317.892 266.25 318.43C264.95 318.966 263.557 319.243 262.15 319.247L243.672 319.313V250.306L259.88 250.254C261.575 250.252 263.254 250.585 264.82 251.234C266.386 251.882 267.808 252.834 269.005 254.034C270.198 255.228 271.159 256.661 271.804 258.22C272.45 259.78 272.783 261.47 272.787 263.159L272.867 308.531C272.866 309.938 272.588 311.331 272.051 312.631Z" fill="black"/>
</svg>

<?xml version="1.0" encoding="utf-8"?>
<!-- Generator: Adobe Illustrator 23.0.4, SVG Export Plug-In . SVG Version: 6.00 Build 0)  -->
<svg version="1.1" id="Layer_1" xmlns="http://www.w3.org/2000/svg" xmlns:xlink="http://www.w3.org/1999/xlink" x="0px" y="0px"
	 viewBox="0 0 500 500" style="enable-background:new 0 0 500 500;" xml:space="preserve">
<style type="text/css">
	.st0{fill:#FFFFFF;}
	.st1{fill-rule:evenodd;clip-rule:evenodd;}
</style>
<rect y="0" class="st0" width="500" height="500"/>
<path class="st1" d="M107.2,260.4c1.5,1.1,3.1,1.9,4.9,2.5c3.4,1.1,7.2,1.1,10.6,0c1.8-0.6,3.4-1.4,4.9-2.5c1.5-1.1,2.8-2.4,3.9-3.9
	c2.1-3,3.3-6.5,3.3-10.2c0-1.8-0.3-3.6-0.8-5.3c-1.1-3.5-3.4-6.6-6.4-8.8c-1.5-1.1-3.1-1.9-4.9-2.5c-3.5-1.1-7.2-1.1-10.6,0
	c-3.5,1.1-6.6,3.4-8.8,6.4c-1.1,1.5-1.9,3.1-2.5,4.9c-0.5,1.7-0.8,3.5-0.8,5.3c0,1.8,0.3,3.6,0.8,5.3
	C101.9,255.2,104.2,258.3,107.2,260.4z M144.9,161.2h-55l27.6,62.4L144.9,161.2z"/>
<path class="st1" d="M162.3,311.7c0,1.7-0.3,3.4-1,4.9c-1.3,3.2-3.8,5.7-7,7c-1.6,0.6-3.2,1-4.9,1h-2.6c-1.7,0-3.4-0.3-4.9-1
	c-3.2-1.3-5.7-3.8-7-7c-0.6-1.6-1-3.2-1-4.9l0-29.3l-29.8,0v22.1c0,4.5,0.9,9,2.6,13.1c1.7,4.2,4.3,8,7.4,11.1
	c3.2,3.2,7,5.7,11.1,7.4c4.2,1.7,8.6,2.6,13.1,2.6h18.4c4.5,0,9-0.9,13.1-2.6c4.2-1.7,8-4.3,11.1-7.4c3.2-3.2,5.7-7,7.4-11.1
	c1.7-4.2,2.6-8.6,2.6-13.1V161.4l-28.9,0L162.3,311.7z M382.3,282.5l0,26c0,1.7-0.3,3.4-1,4.9c-0.7,1.6-1.6,3-2.8,4.2
	c-1.2,1.2-2.6,2.1-4.2,2.8c-1.6,0.6-3.2,1-4.9,1h-2.6c-1.7,0-3.4-0.3-4.9-1c-1.6-0.6-3-1.6-4.2-2.8c-1.2-1.2-2.2-2.6-2.8-4.2
	c-0.6-1.6-1-3.2-1-4.9l0-147.1l-28.9,0l0,173.8h85.1l0-52.8L382.3,282.5z M301,256.4c-1.4-3.4-3.5-6.4-6.1-9
	c-2.4-2.4-5.3-4.3-8.6-5.5c2.7-1.3,5.1-3,7.3-5c2.2-2.1,4.1-4.5,5.4-7.3c1.3-2.8,2-5.8,2-8.9l0-31.6c0-3.7-0.7-7.3-2.1-10.7
	c-1.4-3.4-3.5-6.5-6-9c-2.6-2.6-5.7-4.6-9-6c-3.4-1.4-7-2.1-10.7-2.1h-57.4v174h59.6c5.5,0,10.9-1.6,15.5-4.7
	c4.6-3.1,8.2-7.4,10.3-12.5c1.4-3.4,2.1-7,2.1-10.7c0-13.3,0-26.7,0-40C303.2,263.5,302.4,259.9,301,256.4z M243.7,176.1l15.1-0.1
	c1.7,0,3.4,0.3,4.9,1c1.6,0.6,3,1.6,4.2,2.8c1.2,1.2,2.2,2.6,2.8,4.2c0.6,1.6,1,3.2,1,4.9l0.1,34.9c0,2.1-0.6,4.2-1.8,6
	c-1.2,1.8-2.9,3.1-4.8,3.9c-1.3,0.5-2.7,0.8-4.1,0.8l-17.4,0.1V176.1z M272.1,312.6c-0.5,1.3-1.3,2.5-2.3,3.5s-2.2,1.8-3.5,2.3
	c-1.3,0.5-2.7,0.8-4.1,0.8l-18.5,0.1v-69l16.2-0.1c1.7,0,3.4,0.3,4.9,1c1.6,0.6,3,1.6,4.2,2.8c1.2,1.2,2.2,2.6,2.8,4.2
	c0.6,1.6,1,3.2,1,4.9l0.1,45.4C272.9,309.9,272.6,311.3,272.1,312.6z"/>
</svg>
